X:1
T:Suliko
T:სულიკო Suliko
T:music by Varinka Tsereteli arrangement for two violins by Alexander Babaev
C:V. Tsereteli
%%score [ 1 2 ]
L:1/8
Q:1/4=68
M:2/4
K:D
V:1 treble nm="Vln I"
V:2 treble nm="Vln II"
V:1
!p!"^2nd position""^dolce cantabile" AA (FG | A2) (BG) | A4- | A4 | cccc | c2 (ec) | d4- | d4 | %8
 dd(cd) | (edcB) | c2 B2 | A4 | BB AA | G2 (AG) | F4- | F4 | dd(cd) | (edcB) | c2 B2 | A4 | %20
 BB AA |1 G2 (AG) | F4- | F4 :|2 G4- || G4 | (f2 e2) | d4- | d4 |] %29
V:2
!p! D2 A,2 | D4- | D2 F2 | D2 (CB,) | A,2 C2 | E4 | F2 D2 | =C3 A, | G,2 B,2 | D4 | E2 C2 | %11
 (DB,) A,2 | G,2 B,2 | C2 E2 | D2 A,2- | A,(D=CA,) | G,2 B,2 | D4 | E2 C2 | D2 A,2 | G,2 B,2 |1 %21
 C4 | D3 B, | A,4 :|2 A,4- || A,2 C2 | (B,2 C2) | D4- | D4 |] %29

